src/assets/Icons/file-user-solid.svg

<svg viewBox="0 0 384 512" xmlns="http://www.w3.org/2000/svg"><path d="m64 0c-35.3 0-64 28.7-64 64v384c0 35.3 28.7 64 64 64h256c35.3 0 64-28.7 64-64v-288h-128c-17.7 0-32-14.3-32-32v-128zm192 0v128h128zm0 256c0 35.3-28.7 64-64 64s-64-28.7-64-64 28.7-64 64-64 64 28.7 64 64zm-176 176c0-44.2 35.8-80 80-80h64c44.2 0 80 35.8 80 80 0 8.8-7.2 16-16 16h-192c-8.8 0-16-7.2-16-16z"/></svg>

<svg xmlns="http://www.w3.org/2000/svg" viewBox="0 0 384 512"><!--! Font Awesome Pro 6.2.0 by @fontawesome - https://fontawesome.com License - https://fontawesome.com/license (Commercial License) Copyright 2022 Fonticons, Inc. --><path d="M64 0C28.7 0 0 28.7 0 64V448c0 35.3 28.7 64 64 64H320c35.3 0 64-28.7 64-64V160H256c-17.7 0-32-14.3-32-32V0H64zM256 0V128H384L256 0zm0 256c0 35.3-28.7 64-64 64s-64-28.7-64-64s28.7-64 64-64s64 28.7 64 64zM80 432c0-44.2 35.8-80 80-80h64c44.2 0 80 35.8 80 80c0 8.8-7.2 16-16 16H96c-8.8 0-16-7.2-16-16z"/></svg>
